app/images/wyre.svg

<svg height="24" viewBox="0 0 72 24" width="72" xmlns="http://www.w3.org/2000/svg"><g fill-rule="evenodd"><path d="m40.2451269 20.4956914c2.2067308.3075429 3.5505-.0929143 4.5913846-1.1228571.6535385-.6462857 1.1502693-1.4033143 1.5888462-2.1987429 1.7757692-3.2187428 6.0483461-10.99508569 6.0483461-10.99508569h-3.078l-3.2001923 6.37028569-.9986538-6.37028569h-3.2711539v.14811429s1.1073462 5.832 1.6757308 8.8206857c.0848077.4453714.1723846 1.5915429-.6410769 2.3328-.4551923.4145143-1.1125385.7590857-2.2448077.5756572z"/><path d="m37.793 6.179-2.976 6.689-.08-.007-.403-6.516h-3.241l-3.159 6.524-.081-.027-.135-6.663h-3.101l.617 10.685h3.356l3.252-6.972.076.013.516 6.959h3.378l4.886-10.685z"/><path d="m55.7303192 16.8643543h-3.2566154c.7255385-3.6030857 1.4185385-7.08514287 2.1437308-10.68548573h2.5248462v1.96594286c.3378461-.81222857.798923-1.56857143 1.5812307-1.90045714.7674231-.32571429 1.9536923-.30857143 3.1631539.05931428-.4763077.91371429-.8394231 1.72662857-1.3551923 2.71577143-.4652308-.0912-.8837308-.20777143-1.3098462-.2496-.9571154-.09428571-1.6521923.28388571-1.9789615 1.18285714-.2281154.62777146-.3700385 1.29257146-.5078077 1.94845716-.3454615 1.6433143-.6663462 3.2907428-1.0045385 4.9632m10.4118577-8.14426287c.4655769-.56057143 1.3039616-.87051429 1.9263462-.67748572.7591154.23554286 1.0083461 1.06902858.4690384 1.65085715-.1831153.19748571-.4385769.36102854-.693.45565714-.7833461.2914286-1.5940384.2825143-2.4469615.1371429.1443462-.6195429.3728077-1.1187429.7445769-1.56617147zm4.1680385 5.48811427s-.0273462-.0003428-.1090385-.0003428c-1.2468461.4738285-2.6304231.5979428-3.5840769.3301714-1.0536923-.2958857-1.6615385-1.2041143-1.4701154-2.2299429 3.1403077.2616 4.4733462-.3305143 5.1888462-.7542857 1.9384615-1.1482286 2.4313846-4.22159999-.0979616-5.13154284-2.2223077-.79954286-5.3179615-.41931429-6.7804615 1.33542857-1.3326923 1.59908571-1.7238462 3.35759997-1.5196154 5.31497147.1533462 1.4725714 1.1727692 3.5835428 4.5045 3.9130285 2.0142692.1992 3.3036923-.3133714 3.3975-.3517714zm-65.33338848 9.78744h7.40561538c1.4604231 0 2.7758077-.8746286 3.3289615-2.2131428l3.9946154-9.6651429-4.4833846 5.6475429c-.6795.8965714-1.7079231 1.4794285-2.9173846 1.4794285h-5.36469231z"/><path d="m2.52183462 18.0546514h7.40561538c1.4604231 0 2.7758077-.8746285 3.3289615-2.2131428l3.9949616-9.66480003-4.4837308 5.64720003c-.6795.8965714-1.7079231 1.4794285-2.91738461 1.4794285h-5.36469231z"/><path d="m7.39111154.22872h7.40561536l-3.9953077 9.66617143c-.5531538 1.33851427-1.86853843 2.21314287-3.32896151 2.21314287h-7.40561538l3.99530769-9.66617144c.55315385-1.33851429 1.86853846-2.21314286 3.32896154-2.21314286"/></g></svg>

<svg xmlns="http://www.w3.org/2000/svg" width="72" height="24" viewBox="0 0 72 24">
  <g fill="#000000" fill-rule="evenodd">
    <path d="M40.2451269,20.4956914 C42.4518577,20.8032343 43.7956269,20.4027771 44.8365115,19.3728343 C45.49005,18.7265486 45.9867808,17.96952 46.4253577,17.1740914 C48.2011269,13.9553486 52.4737038,6.17900571 52.4737038,6.17900571 L49.3957038,6.17900571 L46.1955115,12.5492914 L45.1968577,6.17900571 L41.9257038,6.17900571 L41.9257038,6.32712 C41.9257038,6.32712 43.03305,12.15912 43.6014346,15.1478057 C43.6862423,15.5931771 43.7738192,16.7393486 42.9603577,17.4806057 C42.5051654,17.89512 41.8478192,18.2396914 40.71555,18.0562629 L40.2451269,20.4956914 Z"/>
    <polygon points="37.793 6.179 34.817 12.868 34.737 12.861 34.334 6.345 31.093 6.345 27.934 12.869 27.853 12.842 27.718 6.179 24.617 6.179 25.234 16.864 28.59 16.864 31.842 9.892 31.918 9.905 32.434 16.864 35.812 16.864 40.698 6.179"/>
    <path d="M55.7303192 16.8643543L52.4737038 16.8643543C53.1992423 13.2612686 53.8922423 9.77921143 54.6174346 6.17886857L57.1422808 6.17886857 57.1422808 8.14481143C57.4801269 7.33258286 57.9412038 6.57624 58.7235115 6.24435429 59.4909346 5.91864 60.6772038 5.93578286 61.8866654 6.30366857 61.4103577 7.21738286 61.0472423 8.03029714 60.5314731 9.01944 60.0662423 8.92824 59.6477423 8.81166857 59.2216269 8.76984 58.2645115 8.67555429 57.5694346 9.05372571 57.2426654 9.95269714 57.01455 10.5804686 56.8726269 11.2452686 56.7348577 11.9011543 56.3893962 13.5444686 56.0685115 15.1918971 55.7303192 16.8643543M66.1421769 8.72009143C66.6077538 8.15952 67.4461385 7.84957714 68.0685231 8.04260571 68.8276385 8.27814857 69.0768692 9.11163429 68.5375615 9.69346286 68.3544462 9.89094857 68.0989846 10.0544914 67.8445615 10.14912 67.0612154 10.4405486 66.2505231 10.4316343 65.3976 10.2862629 65.5419462 9.66672 65.7704077 9.16752 66.1421769 8.72009143L66.1421769 8.72009143zM70.3102154 14.2082057C70.3102154 14.2082057 70.2828692 14.2078629 70.2011769 14.2078629 68.9543308 14.6816914 67.5707538 14.8058057 66.6171 14.5380343 65.5634077 14.2421486 64.9555615 13.33392 65.1469846 12.3080914 68.2872923 12.5696914 69.6203308 11.9775771 70.3358308 11.5538057 72.2742923 10.4055771 72.7672154 7.33220571 70.2378692 6.42226286 68.0155615 5.62272 64.9199077 6.00294857 63.4574077 7.75769143 62.1247154 9.35677714 61.7335615 11.1152914 61.9377923 13.0726629 62.0911385 14.5452343 63.1105615 16.6562057 66.4422923 16.9856914 68.4565615 17.1848914 69.7459846 16.67232 69.8397923 16.63392L70.3102154 14.2082057zM4.97682692 23.9956457L12.3824423 23.9956457C13.8428654 23.9956457 15.15825 23.1210171 15.7114038 21.7825029L19.7060192 12.11736 15.2226346 17.7649029C14.5431346 18.6614743 13.5147115 19.2443314 12.30525 19.2443314L6.94055769 19.2443314 4.97682692 23.9956457z"/>
    <path d="M2.52183462,18.0546514 L9.92745,18.0546514 C11.3878731,18.0546514 12.7032577,17.1800229 13.2564115,15.8415086 L17.2513731,6.17670857 L12.7676423,11.8239086 C12.0881423,12.72048 11.0597192,13.3033371 9.85025769,13.3033371 L4.48556538,13.3033371 L2.52183462,18.0546514 Z"/>
    <path d="M7.39111154,0.22872 L14.7967269,0.22872 L10.8014192,9.89489143 C10.2482654,11.2334057 8.93288077,12.1080343 7.47245769,12.1080343 L0.0668423077,12.1080343 L4.06215,2.44186286 C4.61530385,1.10334857 5.93068846,0.22872 7.39111154,0.22872"/>
  </g>
</svg>
